!!!SOCIAL_FUNCTION:	uncategorized
!!!PDT:	1932
!!!OTL: Flute Melody No 2
!!!REG: Wisconsin
!!!LANG: Non-Tone
!!!LING_GROUP: Algonquin
**kern
*staff1
=1-
*clefG2
*k[f#c#g#]
*M3/4
2.a/
=2||
*M2/4
2a/
=3||
*M3/4
4.a/
8r
8.aa\L
16ee\Jk
=4
2aa\
8ff#\
8r
=5
2ee\
4aa\
=6||
*M2/4
4.ee\
16ff#\LL
16ee\JJ
=7
4dd\
4ee\
=8||
*M3/4
2dd\
4b\
=9
[2.a/
=10
2a/]
4r
=11||
*M2/4
2a/
=12
2ee\
=13
4dd\
4b\
=14
[2a/
=15
2a/]
==
*-
